svg/part/brain_line.svg

<?xml version="1.0" encoding="UTF-8"?>
<svg width="24px" height="24px" viewBox="0 0 24 24" version="1.1" xmlns="http://www.w3.org/2000/svg" xmlns:xlink="http://www.w3.org/1999/xlink">
    <title>brain_line</title>
    <g id="Icon" stroke="none" stroke-width="1" fill="none" fill-rule="evenodd">
        <g id="Part" transform="translate(-288.000000, -192.000000)">
            <g id="brain_line" transform="translate(288.000000, 192.000000)">
                <path d="M24,0 L24,24 L0,24 L0,0 L24,0 Z M12.5935,23.2578 L12.5819,23.2595 L12.5109,23.295 L12.4919,23.2987 L12.4767,23.295 L12.4057,23.2595 C12.3958,23.2564 12.387,23.259 12.3821,23.2649 L12.378,23.2758 L12.3609,23.7031 L12.3659,23.7235 L12.3769,23.7357 L12.4805,23.8097 L12.4953,23.8136 L12.5071,23.8097 L12.6107,23.7357 L12.6233,23.7197 L12.6267,23.7031 L12.6096,23.2758 C12.6076,23.2657 12.601,23.2593 12.5935,23.2578 Z M12.8584,23.1453 L12.8445,23.1473 L12.6598,23.2397 L12.6499,23.2499 L12.6472,23.2611 L12.6651,23.6906 L12.6699,23.7034 L12.6784,23.7105 L12.8793,23.8032 C12.8914,23.8069 12.9022,23.803 12.9078,23.7952 L12.9118,23.7812 L12.8777,23.1665 C12.8753,23.1546 12.8674,23.147 12.8584,23.1453 Z M12.143,23.1473 C12.1332,23.1424 12.1222,23.1453 12.1156,23.1526 L12.1099,23.1665 L12.0758,23.7812 C12.0751,23.7927 12.0828,23.8019 12.0926,23.8046 L12.1083,23.8032 L12.3092,23.7105 L12.3186,23.7024 L12.3225,23.6906 L12.3404,23.2611 L12.3372,23.2485 L12.3278,23.2397 L12.143,23.1473 Z" id="MingCute" fill-rule="nonzero"></path>
                <path d="M9,3 C6.79086,3 5,4.79086 5,7 L5,8.12602 C3.27477,8.57006 2,10.1362 2,12 C2,13.8638 3.27477,15.4299 5,15.874 L5,17 C5,19.2091 6.79086,21 9,21 C10.1947,21 11.2671,20.4762 12,19.6458 C12.7329,20.4762 13.8053,21 15,21 C17.2091,21 19,19.2091 19,17 L19,15.874 C20.7252,15.4299 22,13.8638 22,12 C22,10.1362 20.7252,8.57006 19,8.12602 L19,7 C19,4.79086 17.2091,3 15,3 C13.8053,3 12.7329,3.52376 12,4.35418 C11.2671,3.52376 10.1947,3 9,3 Z M17,9 L17,7 C17,5.89543 16.1046,5 15,5 C13.8954,5 13,5.89543 13,7 L13,11.5351 C13.5883,11.1948 14.2714,11 15,11 C15.5523,11 16,11.4477 16,12 C16,12.5523 15.5523,13 15,13 C13.8954,13 13,13.8954 13,15 L13,17 C13,18.1046 13.8954,19 15,19 C16.1046,19 17,18.1046 17,17 L17,15.8737 C16.887,15.8446 16.7758,15.8107 16.6668,15.7721 C16.146,15.5881 15.8731,15.0168 16.0572,14.496 C16.2412,13.9753 16.8125,13.7024 17.3332,13.8865 C17.5405,13.9597 17.7645,14 18,14 C19.1046,14 20,13.1046 20,12 C20,10.8954 19.1046,10 18,10 C17.4477,10 17,9.55228 17,9 Z M9,13 C10.1046,13 11,13.8954 11,15 L11,17 C11,18.1046 10.1046,19 9,19 C7.89543,19 7,18.1046 7,17 L7,15.8737 C7.11301,15.8446 7.22418,15.8107 7.33325,15.7721 C7.85396,15.5881 8.12689,15.0168 7.94284,14.496 C7.75879,13.9753 7.18747,13.7024 6.66675,13.8865 C6.45952,13.9597 6.23555,14 6,14 C4.89543,14 4,13.1046 4,12 C4,10.8954 4.89543,10 6,10 C6.55228,10 7,9.55228 7,9 L7,7 C7,5.89543 7.89543,5 9,5 C10.1046,5 11,5.89543 11,7 L11,11.5351 C10.4117,11.1948 9.72857,11 9,11 C8.44772,11 8,11.4477 8,12 C8,12.5523 8.44772,13 9,13 Z" id="形状" fill="#09244B"></path>
            </g>
        </g>
    </g>
</svg>

<svg xmlns="http://www.w3.org/2000/svg" width="24" height="24"><g fill="none" fill-rule="evenodd"><path d="M24 0v24H0V0h24ZM12.594 23.258l-.012.002-.071.035-.02.004-.014-.004-.071-.036c-.01-.003-.019 0-.024.006l-.004.01-.017.428.005.02.01.013.104.074.015.004.012-.004.104-.074.012-.016.004-.017-.017-.427c-.002-.01-.009-.017-.016-.018Zm.264-.113-.014.002-.184.093-.01.01-.003.011.018.43.005.012.008.008.201.092c.012.004.023 0 .029-.008l.004-.014-.034-.614c-.003-.012-.01-.02-.02-.022Zm-.715.002a.023.023 0 0 0-.027.006l-.006.014-.034.614c0 .012.007.02.017.024l.015-.002.201-.093.01-.008.003-.011.018-.43-.003-.012-.01-.01-.184-.092Z"/><path fill="#09244B" d="M9 3a4 4 0 0 0-4 4v1.126a4.002 4.002 0 0 0 0 7.748V17a4 4 0 0 0 7 2.646A4 4 0 0 0 19 17v-1.126a4.002 4.002 0 0 0 0-7.748V7a4 4 0 0 0-7-2.646A3.99 3.99 0 0 0 9 3Zm8 6V7a2 2 0 1 0-4 0v4.535A3.982 3.982 0 0 1 15 11a1 1 0 1 1 0 2 2 2 0 0 0-2 2v2a2 2 0 1 0 4 0v-1.126a3.947 3.947 0 0 1-.333-.102 1 1 0 1 1 .666-1.886A2 2 0 1 0 18 10a1 1 0 0 1-1-1Zm-8 4a2 2 0 0 1 2 2v2a2 2 0 1 1-4 0v-1.126c.113-.03.224-.063.333-.102a1 1 0 1 0-.666-1.886A2 2 0 1 1 6 10a1 1 0 0 0 1-1V7a2 2 0 1 1 4 0v4.535A3.982 3.982 0 0 0 9 11a1 1 0 1 0 0 2Z"/></g></svg>
